X: 25
T: Forked Deer
C:
M:4/4
L:1/4
K:D
d-|\
"D"d/2e/2f/2g/2aa/2f/2|\
"G"g/2a/2g/2e/2"A7"f/2d/2e|\
"D"d/2e/2f/2g/2a/2b/2a|\
"A7"e/2f/2e/2d/2c/2B/2A/2B/2|\
"D"d/2e/2f/2g/2aa/2f/2|\
"G"g/2a/2g/2e/2"A7"f/2d/2e|\
"D"d/2A/2c/2A/2B/2c/2A/2G/2|\
"A7"F/2D/2E/2F/2"D"D::\
F|\
"A7"A3/2c/2B/2A/2c/2B/2|\
A/2c/2B/2A/2E/2D/2E|\
"A7"AA/2c/2B/2c/2B/2A/2|\
"D"F/2D/2E/2F/2D/2E/2D/2F/2|\
"A7"A3/2A/2B/2A/2c/2A/2|\
"D"d/2A/2B/2A/2FF/2E/2|\
"D"DE/2D/2"G"F/2D/2G/2D/2|\
"A7"F/2D/2E/2F/2"D"D:|\
%%sep 2 1 500
